svgs/sharp-light/up-from-bracket.svg

<svg xmlns="http://www.w3.org/2000/svg" viewBox="0 0 448 512"><!--! Font Awesome Pro 6.6.0 by @fontawesome - https://fontawesome.com License - https://fontawesome.com/license (Commercial License) Copyright 2024 Fonticons, Inc. --><path d="M272 208l0-32 32 0 48 0 0-17.7L224 43.1 96 158.3 96 176l48 0 32 0 0 32 0 112 96 0 0-112zm112 0l-32 0-16 0-32 0 0 32 0 80 0 32-32 0-96 0-32 0 0-32 0-80 0-32-32 0-16 0-32 0 0-32 0-32L224 0 384 144l0 32 0 32zM32 336l0 144 384 0 0-144 0-16 32 0 0 16 0 160 0 16-16 0L16 512 0 512l0-16L0 336l0-16 32 0 0 16z"/></svg>

<svg xmlns="http://www.w3.org/2000/svg" viewBox="0 0 448 512"><!--! Font Awesome Pro 6.4.0 by @fontawesome - https://fontawesome.com License - https://fontawesome.com/license (Commercial License) Copyright 2023 Fonticons, Inc. --><path d="M272 208V176h32 48V158.3L224 43.1 96 158.3V176h48 32v32V320h96V208zm112 0H352 336 304v32 80 32H272 176 144V320 240 208H112 96 64V176 144L224 0 384 144v32 32zM32 336V480H416V336 320h32v16V496v16H432 16 0V496 336 320H32v16z"/></svg>
